src/assets/images/copy.svg

<svg fill="none" height="17" viewBox="0 0 17 17" width="17" xmlns="http://www.w3.org/2000/svg"><path d="m10.1404 13.4229h-6.56496c-.87024-.0011-1.70455-.3472-2.31991-.9626-.615353-.6154-.961519-1.4497-.962561-2.3199v-6.56496c.001042-.87024.347208-1.70455.962561-2.31991.61536-.615353 1.44967-.961519 2.31991-.962561h6.56496c.8702.001042 1.7045.347208 2.3199.962561.6154.61536.9615 1.44967.9626 2.31991v6.56496c-.0011.8702-.3472 1.7045-.9626 2.3199s-1.4497.9615-2.3199.9626zm-6.56496-11.81694c-.52234 0-1.02328.2075-1.39263.57685s-.57685.87029-.57685 1.39263v6.56496c0 .5223.2075 1.0233.57685 1.3926.36935.3694.87029.5769 1.39263.5769h6.56496c.5223 0 1.0233-.2075 1.3926-.5769.3694-.3693.5769-.8703.5769-1.3926v-6.56496c0-.52234-.2075-1.02328-.5769-1.39263-.3693-.36935-.8703-.57685-1.3926-.57685zm12.47336 11.16044v-8.53446c0-.17411-.0691-.3411-.1922-.46421-.1231-.12312-.2901-.19229-.4642-.19229-.1742 0-.3411.06917-.4643.19229-.1231.12311-.1922.2901-.1922.46421v8.53446c0 .5223-.2075 1.0233-.5769 1.3926-.3693.3694-.8703.5769-1.3926.5769h-8.53446c-.17411 0-.3411.0691-.46421.1922-.12312.1232-.19229.2901-.19229.4643 0 .1741.06917.3411.19229.4642.12311.1231.2901.1922.46421.1922h8.53446c.8702-.001 1.7045-.3472 2.3199-.9625.6153-.6154.9615-1.4497.9625-2.3199z" fill="#f49893"/></svg>

<svg width="17" height="17" viewBox="0 0 17 17" fill="none" xmlns="http://www.w3.org/2000/svg">
<g clipPath="url(#clip0_552_7707)">
<path d="M10.1404 13.4229H3.57544C2.7052 13.4218 1.87089 13.0757 1.25553 12.4603C0.640177 11.8449 0.294011 11.0106 0.292969 10.1404L0.292969 3.57544C0.294011 2.7052 0.640177 1.87089 1.25553 1.25553C1.87089 0.640177 2.7052 0.294011 3.57544 0.292969L10.1404 0.292969C11.0106 0.294011 11.8449 0.640177 12.4603 1.25553C13.0757 1.87089 13.4218 2.7052 13.4229 3.57544V10.1404C13.4218 11.0106 13.0757 11.8449 12.4603 12.4603C11.8449 13.0757 11.0106 13.4218 10.1404 13.4229ZM3.57544 1.60596C3.0531 1.60596 2.55216 1.81346 2.18281 2.18281C1.81346 2.55216 1.60596 3.0531 1.60596 3.57544V10.1404C1.60596 10.6627 1.81346 11.1637 2.18281 11.533C2.55216 11.9024 3.0531 12.1099 3.57544 12.1099H10.1404C10.6627 12.1099 11.1637 11.9024 11.533 11.533C11.9024 11.1637 12.1099 10.6627 12.1099 10.1404V3.57544C12.1099 3.0531 11.9024 2.55216 11.533 2.18281C11.1637 1.81346 10.6627 1.60596 10.1404 1.60596H3.57544ZM16.0488 12.7664V4.23194C16.0488 4.05783 15.9797 3.89084 15.8566 3.76773C15.7335 3.64461 15.5665 3.57544 15.3924 3.57544C15.2182 3.57544 15.0513 3.64461 14.9281 3.76773C14.805 3.89084 14.7359 4.05783 14.7359 4.23194V12.7664C14.7359 13.2887 14.5284 13.7897 14.159 14.159C13.7897 14.5284 13.2887 14.7359 12.7664 14.7359H4.23194C4.05783 14.7359 3.89084 14.805 3.76773 14.9281C3.64461 15.0513 3.57544 15.2182 3.57544 15.3924C3.57544 15.5665 3.64461 15.7335 3.76773 15.8566C3.89084 15.9797 4.05783 16.0488 4.23194 16.0488H12.7664C13.6366 16.0478 14.4709 15.7016 15.0863 15.0863C15.7016 14.4709 16.0478 13.6366 16.0488 12.7664Z" fill="#F49893"/>
</g>
<defs>
<clipPath id="clip0_552_7707">
<rect width="15.7559" height="15.7559" fill="white" transform="translate(0.292969 0.29248)"/>
</clipPath>
</defs>
</svg>
